X:60
T:Down the Brae
M:C
R:March
L:1/4
K:Am
E|"Am"A>GAB|c>Bcd|"C"e2a2|ge2d|"Am"c>Bce|"G"dBGA|"Em"B2A2|GE2E|
"Am"A>GAB|c>Bcd|"C"e2a2|ge2d|"Am"c>Bce|"G"dBGA|"Em"B2A2|"Am"A2ag||
"Am"e2a2|a2ga|"Em"b2a2|ge2e|"G"d>cde|g>^fga|gede|g2ed|
"Am"e2a2|a2ga|"Em"b2a2|ge2e|"Am"c>Bce|"G"dBGA|"Em"B2A2|"Am"A4|]
